images/icons/white-logo-3.svg

<svg width="80" height="39" viewBox="0 0 80 39" fill="none" xmlns="http://www.w3.org/2000/svg">
<path d="M19.1978 19.133L19.3705 19.0966H33.7349L39.1324 24.4759H24.559L19.1978 19.133Z" fill="white"/>
<path d="M14.5735 19.0965L0 19.0966L5.39755 24.4759H14.5733L14.5735 19.0965Z" fill="white"/>
<path d="M44.1482 3.64408H46.3867V10.5761H50.2313V12.4541H44.1482V3.64408Z" fill="white"/>
<path d="M54.2953 12.6431C53.545 12.6431 52.8876 12.5087 52.3223 12.2398C51.7575 11.9625 51.3191 11.5845 51.0071 11.1055C50.7035 10.6181 50.5518 10.0594 50.5518 9.42916C50.5518 8.79901 50.7035 8.24443 51.0071 7.76551C51.3191 7.27818 51.7575 6.90005 52.3223 6.63121C52.8876 6.35386 53.545 6.21526 54.2953 6.21526C55.0457 6.21526 55.7036 6.35386 56.2684 6.63121C56.8331 6.90005 57.2673 7.27818 57.5708 7.76551C57.8828 8.24443 58.0388 8.79901 58.0388 9.42916C58.0388 10.0594 57.8828 10.6181 57.5708 11.1055C57.2673 11.5845 56.8331 11.9625 56.2684 12.2398C55.7036 12.5087 55.0457 12.6431 54.2953 12.6431ZM54.2953 10.9164C54.7421 10.9164 55.0965 10.7862 55.3577 10.5258C55.6274 10.2568 55.7623 9.89135 55.7623 9.42916C55.7623 8.96705 55.6274 8.60574 55.3577 8.34522C55.0965 8.07638 54.7421 7.94196 54.2953 7.94196C53.8485 7.94196 53.4905 8.07638 53.2202 8.34522C52.959 8.60574 52.8284 8.96705 52.8284 9.42916C52.8284 9.89135 52.959 10.2568 53.2202 10.5258C53.4905 10.7862 53.8485 10.9164 54.2953 10.9164Z" fill="white"/>
<path d="M62.2196 15.3529C61.815 15.3529 61.4062 15.3151 60.9926 15.2395C60.5881 15.1639 60.2386 15.063 59.9435 14.937V13.3994C60.6093 13.685 61.3681 13.8279 62.2196 13.8279C62.8351 13.8279 63.2777 13.7018 63.5474 13.4497C63.8256 13.1977 63.9646 12.8281 63.9646 12.3406V11.9751C63.7203 12.1852 63.4168 12.349 63.0546 12.4667C62.7003 12.5843 62.3205 12.6431 61.916 12.6431C61.2756 12.6431 60.7103 12.5087 60.2217 12.2398C59.7325 11.971 59.3492 11.5928 59.0704 11.1055C58.8007 10.6181 58.6659 10.0594 58.6659 9.42916C58.6659 8.7906 58.8007 8.22761 59.0704 7.74029C59.3407 7.25296 59.7198 6.87908 60.209 6.61856C60.6976 6.3497 61.2587 6.21526 61.8906 6.21526C62.7595 6.21526 63.4761 6.47994 64.0408 7.00925V6.4043H66.1905V12.0382C66.1905 13.0885 65.8663 13.9035 65.2169 14.4833C64.5759 15.063 63.577 15.3529 62.2196 15.3529ZM62.4723 10.929C62.8182 10.929 63.126 10.8408 63.3956 10.6643C63.6653 10.4879 63.8552 10.2527 63.9646 9.95852V8.89989C63.8467 8.60574 63.6526 8.37469 63.3829 8.20664C63.1133 8.03019 62.8097 7.94196 62.4723 7.94196C62.0176 7.94196 61.6506 8.07638 61.3724 8.34522C61.0942 8.60574 60.9552 8.96289 60.9552 9.41659C60.9552 9.8787 61.0942 10.2484 61.3724 10.5258C61.6506 10.7946 62.0176 10.929 62.4723 10.929Z" fill="white"/>
<path d="M70.4987 12.6431C69.7483 12.6431 69.0904 12.5087 68.5256 12.2398C67.9609 11.9625 67.5225 11.5845 67.2105 11.1055C66.9069 10.6181 66.7552 10.0594 66.7552 9.42916C66.7552 8.79901 66.9069 8.24443 67.2105 7.76551C67.5225 7.27818 67.9609 6.90005 68.5256 6.63121C69.0904 6.35386 69.7483 6.21526 70.4987 6.21526C71.249 6.21526 71.9064 6.35386 72.4717 6.63121C73.0365 6.90005 73.4706 7.27818 73.7742 7.76551C74.0862 8.24443 74.2422 8.79901 74.2422 9.42916C74.2422 10.0594 74.0862 10.6181 73.7742 11.1055C73.4706 11.5845 73.0365 11.9625 72.4717 12.2398C71.9064 12.5087 71.249 12.6431 70.4987 12.6431ZM70.4987 10.9164C70.9456 10.9164 71.2993 10.7862 71.5611 10.5258C71.8308 10.2568 71.9656 9.89135 71.9656 9.42916C71.9656 8.96705 71.8308 8.60574 71.5611 8.34522C71.2993 8.07638 70.9456 7.94196 70.4987 7.94196C70.0519 7.94196 69.6932 8.07638 69.4236 8.34522C69.1623 8.60574 69.0317 8.96705 69.0317 9.42916C69.0317 9.89135 69.1623 10.2568 69.4236 10.5258C69.6932 10.7862 70.0519 10.9164 70.4987 10.9164Z" fill="white"/>
<path d="M44.1482 15.6966H46.3867V24.5066H44.1482V15.6966Z" fill="white"/>
<path d="M47.5199 18.4569H49.6696V19.0618C50.2344 18.5325 50.9515 18.2679 51.8198 18.2679C52.4517 18.2679 53.0129 18.4023 53.5014 18.6712C53.9906 18.9316 54.3697 19.3055 54.64 19.7928C54.9097 20.2718 55.0445 20.8306 55.0445 21.4692C55.0445 22.0993 54.9097 22.6623 54.64 23.158C54.3697 23.6454 53.9906 24.0236 53.5014 24.2923C53.0213 24.5612 52.4601 24.6957 51.8198 24.6957C51.4147 24.6957 51.0271 24.6327 50.6564 24.5066C50.2936 24.389 49.9901 24.2252 49.7458 24.0151V27.2669H47.5199V18.4569ZM51.2382 22.969C51.6934 22.969 52.0598 22.8346 52.338 22.5657C52.6161 22.2968 52.7553 21.9313 52.7553 21.4692C52.7553 21.007 52.6161 20.6457 52.338 20.3852C52.0598 20.1164 51.6934 19.982 51.2382 19.982C50.9007 19.982 50.5972 20.0702 50.3275 20.2466C50.0577 20.4146 49.8637 20.6457 49.7458 20.9398V22.0111C49.8637 22.3052 50.0577 22.5404 50.3275 22.7169C50.5972 22.885 50.9007 22.969 51.2382 22.969Z" fill="white"/>
<path d="M58.3629 24.6957C57.8737 24.6957 57.3634 24.6452 56.8325 24.5444C56.3016 24.452 55.8795 24.3176 55.5681 24.1412V22.5153C55.9133 22.7169 56.3264 22.885 56.8071 23.0194C57.2963 23.1455 57.7431 23.2085 58.1476 23.2085C58.4428 23.2085 58.658 23.1874 58.7929 23.1455C58.9277 23.1034 58.9948 23.0194 58.9948 22.8933C58.9948 22.7926 58.9489 22.7127 58.8557 22.654C58.7717 22.5867 58.6115 22.5195 58.3756 22.4522C58.1476 22.3766 57.8822 22.2968 57.5786 22.2128C57.0641 22.0615 56.6595 21.906 56.3645 21.7464C56.0693 21.5868 55.8505 21.3852 55.7072 21.1415C55.5638 20.8978 55.4919 20.591 55.4919 20.2213C55.4919 19.566 55.7489 19.0786 56.2635 18.7594C56.7859 18.4317 57.4988 18.2679 58.4004 18.2679C58.8388 18.2679 59.2984 18.3141 59.7791 18.4064C60.2682 18.4989 60.6347 18.6208 60.8796 18.772V20.3726C60.6262 20.2046 60.2894 20.0659 59.868 19.9567C59.4544 19.8475 59.0667 19.7928 58.7039 19.7928C58.4174 19.7928 58.1942 19.8222 58.034 19.8811C57.8737 19.9315 57.794 20.024 57.794 20.1584C57.794 20.2844 57.8737 20.3811 58.034 20.4482C58.1942 20.5155 58.4809 20.5995 58.8938 20.7003C59.1635 20.7675 59.2778 20.797 59.2354 20.7886C59.7748 20.9314 60.1921 21.091 60.4871 21.2675C60.7822 21.444 60.989 21.654 61.1069 21.8977C61.2333 22.1329 61.2968 22.4354 61.2968 22.8051C61.2968 23.3849 61.044 23.8471 60.5379 24.1915C60.0402 24.5276 59.3153 24.6957 58.3629 24.6957Z" fill="white"/>
<path d="M64.6201 24.6957C63.7856 24.6957 63.1574 24.4646 62.7359 24.0025C62.323 23.5403 62.1162 22.9312 62.1162 22.175V18.4569H64.342V21.9229C64.342 22.6203 64.6582 22.969 65.2901 22.969C65.5773 22.969 65.8385 22.9018 66.0744 22.7673C66.3108 22.6329 66.5043 22.4354 66.656 22.175V18.4569H68.8819V24.5066H66.7322V23.8512C66.471 24.1285 66.1548 24.3386 65.7835 24.4814C65.4128 24.6243 65.0247 24.6957 64.6201 24.6957Z" fill="white"/>
<path d="M70.0217 18.4569H72.083V19.1123C72.3357 18.8434 72.6266 18.6376 72.9556 18.4947C73.2845 18.3434 73.6346 18.2679 74.0053 18.2679C74.4605 18.2679 74.8234 18.335 75.0931 18.4694C75.3712 18.604 75.5943 18.8055 75.763 19.0745C76.0158 18.8224 76.3236 18.6249 76.6864 18.4821C77.0486 18.3393 77.4156 18.2679 77.7862 18.2679C78.5875 18.2679 79.1565 18.4737 79.4939 18.8854C79.8313 19.2887 80 19.8727 80 20.6373V24.5066H77.8751V20.9524C77.8751 20.6164 77.8116 20.3726 77.6853 20.2213C77.5589 20.0702 77.3479 19.9945 77.0528 19.9945C76.6737 19.9945 76.3659 20.129 76.1301 20.3978C76.1385 20.5407 76.1428 20.7592 76.1428 21.0532V24.5066H74.018V20.8642C74.018 20.5533 73.9629 20.3306 73.8534 20.1962C73.744 20.0618 73.5499 19.9945 73.2718 19.9945C72.8418 19.9945 72.4706 20.234 72.1592 20.7129V24.5066H70.0217V18.4569Z" fill="white"/>
<path d="M19.3705 19.0966L19.1978 19.133L24.559 24.4759L24.5589 39H19.9709L14.5733 33.6207H19.1613V19.0965H14.5735L14.5733 14.5242H19.1613V0L24.5589 5.3793V14.5241L19.1613 14.5242V19.0965L19.3705 19.0966Z" fill="white"/>
<path d="M33.7349 19.0966L39.1324 24.4759L39.1325 19.9034L33.735 14.5241L33.7349 19.0966Z" fill="white"/>
<path d="M44.4645 28.642H47.7399C48.6672 28.642 49.3879 28.8605 49.9025 29.2975C50.4249 29.7344 50.6867 30.3813 50.6867 31.2384C50.6867 32.1038 50.4292 32.7509 49.9152 33.1795C49.4006 33.6079 48.6756 33.8222 47.7399 33.8222H45.4509V37.452H44.4645V28.642ZM47.6641 32.9904C48.2964 32.9904 48.7941 32.8643 49.1563 32.6122C49.5191 32.3518 49.6999 31.8939 49.6999 31.2384C49.6999 30.5746 49.5191 30.1167 49.1563 29.8646C48.7941 29.6041 48.2964 29.4739 47.6641 29.4739H45.4509V32.9904H47.6641Z" fill="white"/>
<path d="M51.9487 28.1379H52.9222V37.452H51.9487V28.1379Z" fill="white"/>
<path d="M57.144 37.6412C56.3344 37.6412 55.7104 37.4227 55.2719 36.9857C54.842 36.5488 54.6274 35.9648 54.6274 35.2338V31.4023H55.6009V35.2843C55.6009 36.343 56.1529 36.8723 57.2577 36.8723C57.7215 36.8723 58.126 36.7715 58.4719 36.5699C58.8257 36.3681 59.1418 36.0488 59.42 35.6119V31.4023H60.3942V37.452H59.4454V36.5446C58.8976 37.2756 58.1302 37.6412 57.144 37.6412Z" fill="white"/>
<path d="M64.2743 37.6412C63.8776 37.6412 63.452 37.5823 62.9966 37.4647C62.5413 37.3554 62.1876 37.2168 61.9342 37.0487V36.2295C62.2547 36.4228 62.6218 36.5782 63.0347 36.6958C63.4561 36.8135 63.8607 36.8722 64.2489 36.8722C64.7713 36.8722 65.1468 36.8008 65.3742 36.658C65.6106 36.5068 65.7285 36.2841 65.7285 35.9901C65.7285 35.7632 65.6777 35.5867 65.5768 35.4607C65.4752 35.3262 65.3071 35.2086 65.0707 35.1078C64.8348 35.0069 64.4678 34.8893 63.9708 34.7549C63.4816 34.6205 63.0898 34.4818 62.7946 34.339C62.5081 34.1877 62.2885 33.9986 62.1368 33.7717C61.985 33.5449 61.9095 33.255 61.9095 32.9021C61.9095 32.356 62.1283 31.94 62.5667 31.6544C63.0136 31.3602 63.6037 31.2133 64.3372 31.2133C64.7332 31.2133 65.1045 31.251 65.4504 31.3266C65.8042 31.3939 66.0992 31.4905 66.3357 31.6166V32.4358C66.0907 32.3014 65.7957 32.1963 65.4504 32.1207C65.1045 32.0367 64.7459 31.9946 64.3753 31.9946C63.8861 31.9946 63.5155 32.0661 63.262 32.2089C63.0093 32.3518 62.883 32.5829 62.883 32.9021C62.883 33.1206 62.9252 33.2887 63.0093 33.4063C63.1025 33.5239 63.2663 33.6332 63.5028 33.734C63.747 33.8264 64.1352 33.944 64.6661 34.0869C65.425 34.2969 65.9517 34.5448 66.2467 34.8306C66.5503 35.1078 66.702 35.4943 66.702 35.9901C66.702 36.5025 66.5001 36.9059 66.095 37.2C65.699 37.4941 65.0918 37.6412 64.2743 37.6412Z" fill="white"/>
</svg>

<svg width="80" height="39" fill="none" xmlns="http://www.w3.org/2000/svg"><path d="m19.198 19.133.172-.036h14.365l5.397 5.379H24.56l-5.361-5.343ZM14.573 19.096H0l5.398 5.38h9.175v-5.38ZM44.148 3.644h2.239v6.932h3.844v1.878h-6.083v-8.81ZM54.295 12.643c-.75 0-1.407-.134-1.973-.403-.565-.277-1.003-.655-1.315-1.135-.303-.487-.455-1.046-.455-1.676 0-.63.151-1.185.455-1.663.312-.488.75-.866 1.315-1.135.566-.277 1.223-.416 1.973-.416s1.409.139 1.973.416c.565.269 1 .647 1.303 1.135.312.478.468 1.033.468 1.663 0 .63-.156 1.19-.468 1.676-.304.48-.738.857-1.303 1.135-.564.269-1.222.403-1.973.403Zm0-1.727c.447 0 .801-.13 1.063-.39.27-.27.404-.635.404-1.097 0-.462-.135-.823-.404-1.084-.261-.269-.616-.403-1.063-.403-.447 0-.805.134-1.075.403-.261.26-.392.622-.392 1.084 0 .462.131.828.392 1.097.27.26.629.39 1.075.39ZM62.22 15.353c-.405 0-.814-.038-1.227-.114a5.042 5.042 0 0 1-1.05-.302v-1.538c.666.286 1.425.429 2.277.429.615 0 1.058-.126 1.327-.378.279-.252.418-.622.418-1.11v-.365c-.245.21-.548.374-.91.492a3.593 3.593 0 0 1-1.139.176c-.64 0-1.206-.134-1.694-.403a2.928 2.928 0 0 1-1.152-1.135c-.27-.487-.404-1.046-.404-1.676 0-.638.135-1.201.404-1.689A2.76 2.76 0 0 1 60.21 6.62c.489-.27 1.05-.404 1.682-.404.869 0 1.585.265 2.15.794v-.605h2.15v5.634c0 1.05-.325 1.865-.974 2.445-.641.58-1.64.87-2.997.87Zm.252-4.424c.346 0 .654-.088.924-.265.27-.176.46-.411.569-.705v-1.06a1.42 1.42 0 0 0-.582-.692 1.626 1.626 0 0 0-.91-.265c-.455 0-.822.134-1.1.403-.279.26-.418.618-.418 1.072 0 .462.14.831.417 1.109.279.269.646.403 1.1.403ZM70.499 12.643c-.75 0-1.409-.134-1.973-.403-.565-.277-1.004-.655-1.316-1.135-.303-.487-.455-1.046-.455-1.676 0-.63.152-1.185.456-1.663.311-.488.75-.866 1.315-1.135.564-.277 1.222-.416 1.973-.416.75 0 1.407.139 1.973.416.565.269.999.647 1.302 1.135.312.478.468 1.033.468 1.663 0 .63-.156 1.19-.468 1.676-.303.48-.737.857-1.302 1.135-.566.269-1.223.403-1.973.403Zm0-1.727c.447 0 .8-.13 1.062-.39.27-.27.405-.635.405-1.097 0-.462-.135-.823-.405-1.084-.262-.269-.615-.403-1.062-.403-.447 0-.806.134-1.075.403-.262.26-.392.622-.392 1.084 0 .462.13.828.392 1.097.27.26.628.39 1.075.39ZM44.148 15.697h2.239v8.81h-2.239v-8.81ZM47.52 18.457h2.15v.605c.564-.53 1.282-.794 2.15-.794.632 0 1.193.134 1.681.403.49.26.869.634 1.139 1.122.27.479.404 1.038.404 1.676 0 .63-.134 1.193-.404 1.689a2.84 2.84 0 0 1-1.139 1.134c-.48.27-1.04.404-1.681.404-.405 0-.793-.063-1.164-.19a2.613 2.613 0 0 1-.91-.49v3.25H47.52v-8.81Zm3.718 4.512c.455 0 .822-.134 1.1-.403.278-.27.417-.635.417-1.097 0-.462-.139-.823-.417-1.084-.278-.269-.645-.403-1.1-.403-.337 0-.64.088-.91.265-.27.168-.464.399-.582.693v1.071c.118.294.312.53.581.706.27.168.574.252.911.252ZM58.363 24.696c-.49 0-1-.05-1.53-.152-.531-.092-.953-.226-1.265-.403v-1.626c.345.202.758.37 1.24.504.488.127.935.19 1.34.19.295 0 .51-.022.645-.064s.202-.126.202-.252a.27.27 0 0 0-.14-.239c-.083-.067-.243-.134-.48-.202a16.771 16.771 0 0 0-.796-.24c-.515-.15-.92-.306-1.215-.466a1.642 1.642 0 0 1-.657-.604c-.143-.244-.215-.551-.215-.92 0-.656.257-1.143.772-1.463.522-.327 1.235-.491 2.136-.491.439 0 .898.046 1.38.138.488.093.855.215 1.1.366v1.6c-.254-.167-.59-.306-1.012-.415a4.57 4.57 0 0 0-1.164-.164c-.287 0-.51.03-.67.088-.16.05-.24.143-.24.277 0 .126.08.223.24.29.16.067.447.151.86.252.27.067.384.097.341.089.54.142.957.302 1.252.478.295.177.502.387.62.63.126.236.19.538.19.908 0 .58-.253 1.042-.76 1.387-.497.336-1.222.504-2.174.504ZM64.62 24.696c-.834 0-1.463-.231-1.884-.694-.413-.462-.62-1.07-.62-1.827v-3.718h2.226v3.466c0 .697.316 1.046.948 1.046.287 0 .548-.067.784-.202.237-.134.43-.332.582-.592v-3.718h2.226v6.05h-2.15v-.656a2.532 2.532 0 0 1-.948.63c-.371.143-.76.215-1.164.215ZM70.022 18.457h2.061v.655a2.62 2.62 0 0 1 .873-.617 2.482 2.482 0 0 1 1.05-.227c.454 0 .817.067 1.087.201.278.135.501.336.67.605.253-.252.56-.45.923-.592.363-.143.73-.214 1.1-.214.802 0 1.37.206 1.708.617.337.404.506.988.506 1.752v3.87h-2.125v-3.555c0-.336-.063-.58-.19-.73-.126-.152-.337-.228-.632-.228-.38 0-.687.135-.923.404.008.143.013.361.013.655v3.454h-2.125v-3.643c0-.31-.055-.533-.165-.668-.109-.134-.303-.202-.581-.202-.43 0-.801.24-1.113.719v3.794h-2.137v-6.05Z" fill="#fff"/><path d="m19.37 19.097-.172.036 5.361 5.343V39H19.97l-5.398-5.38h4.588V19.098h-4.588v-4.573h4.588V0l5.398 5.38v9.144H19.16v4.572h.21ZM33.735 19.097l5.397 5.379v-4.573l-5.397-5.379v4.573ZM44.465 28.642h3.275c.927 0 1.648.218 2.163.655.522.437.784 1.084.784 1.941 0 .866-.258 1.513-.772 1.941-.514.429-1.24.643-2.175.643h-2.29v3.63h-.986v-8.81Zm3.2 4.348c.631 0 1.13-.126 1.491-.378.363-.26.544-.718.544-1.374 0-.663-.18-1.121-.544-1.373-.362-.26-.86-.391-1.492-.391h-2.213v3.516h2.213ZM51.949 28.138h.973v9.314h-.973v-9.314ZM57.144 37.641c-.81 0-1.434-.218-1.872-.655-.43-.437-.645-1.021-.645-1.752v-3.832h.974v3.882c0 1.059.552 1.588 1.657 1.588.463 0 .868-.1 1.214-.302.354-.202.67-.521.948-.958v-4.21h.974v6.05h-.949v-.907c-.547.73-1.315 1.096-2.301 1.096ZM64.274 37.641c-.396 0-.822-.059-1.277-.176-.456-.11-.81-.248-1.063-.416v-.82c.32.194.688.35 1.1.467.422.117.827.176 1.215.176.522 0 .898-.071 1.125-.214a.743.743 0 0 0 .355-.668c0-.227-.051-.403-.152-.53-.102-.134-.27-.251-.506-.352a9.038 9.038 0 0 0-1.1-.353 7.077 7.077 0 0 1-1.176-.416 1.755 1.755 0 0 1-.658-.567c-.152-.227-.227-.517-.227-.87 0-.546.218-.962.657-1.248.447-.294 1.037-.44 1.77-.44.396 0 .767.037 1.113.113.354.067.65.163.886.29v.819a3.311 3.311 0 0 0-.886-.315 4.541 4.541 0 0 0-1.075-.126c-.489 0-.86.071-1.113.214-.253.143-.379.374-.379.693 0 .219.042.387.126.504.093.118.257.227.494.328.244.092.632.21 1.163.353.759.21 1.286.458 1.58.744.304.277.456.663.456 1.16 0 .511-.202.915-.607 1.209-.396.294-1.003.441-1.82.441Z" fill="#fff"/></svg>
